src/icons/banned.svg

<svg viewBox="0 0 10 10" fill="none" xmlns="http://www.w3.org/2000/svg"><path d="M8.55 1.45C7.6.5 6.35 0 5 0 3.65 0 2.4.5 1.45 1.45-.5 3.4-.5 6.6 1.45 8.55 2.4 9.5 3.65 10 5 10c1.35 0 2.6-.5 3.55-1.45 1.95-1.95 1.95-5.15 0-7.1zm-6.4.7C2.95 1.4 3.95 1 5 1c.9 0 1.75.3 2.45.85l-5.6 5.6C.6 5.9.75 3.6 2.15 2.15zm5.7 5.7C7.05 8.6 6.05 9 5 9c-.9 0-1.75-.3-2.45-.85l5.6-5.6C8.7 3.25 9 4.1 9 5c0 1.05-.4 2.05-1.15 2.85z" fill="currentColor"/></svg>

<svg viewBox="0 0 10 10" fill="none" xmlns="http://www.w3.org/2000/svg">
<path d="M8.55 1.45C7.6 0.5 6.35 0 5 0C3.65 0 2.4 0.5 1.45 1.45C-0.500001 3.4 -0.500001 6.6 1.45 8.55C2.4 9.5 3.65 10 5 10C6.35 10 7.6 9.5 8.55 8.55C10.5 6.6 10.5 3.4 8.55 1.45ZM2.15 2.15C2.95 1.4 3.95 1 5 1C5.9 1 6.75 1.3 7.45 1.85L1.85 7.45C0.6 5.9 0.75 3.6 2.15 2.15ZM7.85 7.85C7.05 8.6 6.05 9 5 9C4.1 9 3.25 8.7 2.55 8.15L8.15 2.55C8.7 3.25 9.00001 4.1 9.00001 5C9.00001 6.05 8.60001 7.05 7.85 7.85Z" fill="currentColor"/>
</svg>
